packages/match-icons/sendgrid/svg/automation.svg

<svg fill="none" height="32" viewBox="0 0 32 32" width="32" xmlns="http://www.w3.org/2000/svg"><g stroke="#394762" stroke-linecap="round" stroke-linejoin="round" stroke-width="1.7"><path d="m1 20.9973h10v10h-10z"/><path d="m11 .997314h10v9.999986h-10z"/><path d="m21 20.9973h10v10h-10z"/><path d="m6 20.9973v-2c0-.5304.21071-1.0391.58579-1.4142.37507-.3751.88378-.5858 1.41421-.5858h16c.5304 0 1.0391.2107 1.4142.5858s.5858.8838.5858 1.4142v2"/><path d="m16 10.9973v6"/></g></svg>

<svg width="32" height="32" viewBox="0 0 32 32" fill="none" xmlns="http://www.w3.org/2000/svg">
<path d="M1 20.9973H11V30.9973H1V20.9973Z" stroke="#394762" stroke-width="1.7" stroke-linecap="round" stroke-linejoin="round"/>
<path d="M11 0.997314H21V10.9973H11V0.997314Z" stroke="#394762" stroke-width="1.7" stroke-linecap="round" stroke-linejoin="round"/>
<path d="M21 20.9973H31V30.9973H21V20.9973Z" stroke="#394762" stroke-width="1.7" stroke-linecap="round" stroke-linejoin="round"/>
<path d="M6 20.9973V18.9973C6 18.4669 6.21071 17.9582 6.58579 17.5831C6.96086 17.208 7.46957 16.9973 8 16.9973H24C24.5304 16.9973 25.0391 17.208 25.4142 17.5831C25.7893 17.9582 26 18.4669 26 18.9973V20.9973" stroke="#394762" stroke-width="1.7" stroke-linecap="round" stroke-linejoin="round"/>
<path d="M16 10.9973V16.9973" stroke="#394762" stroke-width="1.7" stroke-linecap="round" stroke-linejoin="round"/>
</svg>
